X:878
T:Reel 878
M:4/4
K:Gmaj
L:1/8
 (3def |:g2fd edBA|GABG ADFD|GBBc defd| (3efg dB BAAB|G2Bd ADDd|GBBd g2ba|g2fd edBG|cABG AGEA| (3def dB cBAB|GBdf ecBd| (3efg dB cdef|gedB c2Bc| (3def Bd edBd|gfge dBGB|GABc dBGc|BcAB c2|
